X: 1
T: Mazurka de Servant
Z: 2006 John Chambers <jc@trillian.mit.edu> 
M: 3/4
L: 1/8
K: G
   ded | "G"G2 Gd ed | "Am"A2 A2 Bc | "D7"d2 dc BA |1 "G"B2 G :|2 "G"G3 |]
|: Bcd | "C"e2 ed cB | "Am"A2 A2 Bc | "D7"d2 dc BA |1 "G"B2 G :|2 "G"G3 |]
